Origami/48x48/apps/pragha.svg

<svg width="48" height="48" version="1" xmlns="http://www.w3.org/2000/svg">
 <rect transform="matrix(0,-1,-1,0,0,0)" x="-44" y="-44" width="40" height="40" rx="2" ry="2" style="fill:#3c6eb4"/>
 <path d="m6 4c-1.108 0-2 0.892-2 2v1c0-1.108 0.892-2 2-2h36c1.108 0 2 0.892 2 2v-1c0-1.108-0.892-2-2-2h-36z" fill="#fff" opacity=".1"/>
 <path d="m4 42v1c0 1.108 0.892 2 2 2h36c1.108 0 2-0.892 2-2v-1c0 1.108-0.892 2-2 2h-36c-1.108 0-2-0.892-2-2z" opacity=".2"/>
 <path d="m29.878906 12.00036c-0.1467-0.0088-0.381467 0.08326-0.810547 0.267578-0.50933 0.2188-1.668118 0.396484-2.574218 0.396484-3.206641 0.06449-5.772559 1.148838-7.851563 3.1875-2.8219 2.785901-3.711028 6.288669-2.423828 9.542969 0.29713 0.75119 0.477551 1.514566 0.400391 1.697266-0.07713 0.18269-0.619765 0.690063-1.203125 1.126953-1.2675 0.94912-2.143982 2.48-2.363282 4.125-0.13173 0.98811-0.03978 1.459266 0.519532 2.634766 1.2012 2.5243 3.924625 3.605337 6.828125 2.710937 1.6812-0.51786 3.364237-2.357737 4.710937-5.148437 1.1631-2.4104 1.212638-2.468244 2.460938-2.902344 2.1045-0.73188 3.429946-1.541384 4.748046-2.896484 2.3368-2.4025 3.204688-5.514182 2.367188-8.488282-0.37633-1.3363-0.692244-1.796847-2.396484-3.498047-1.0795-1.0776-2.036907-2.169128-2.128907-2.423828-0.07755-0.21458-0.136503-0.323271-0.283203-0.332031zm-5.015625 2c1.070227 0.0042 1.899173 0.312525 2.125 0.925781 0.07404 0.201103-0.238711 1.149029-0.697265 2.105469-1.179219 2.459699-1.556962 3.813245-2.269532 8.152344-0.883744 5.381375-1.848581 7.704308-3.783203 9.101562-1.219602 0.880795-2.717578 0.956394-3.517578 0.179688-0.692124-0.671971-0.892262-1.514061-0.570312-2.396485 0.255025-0.699005 0.50253-0.810935 2.361328-1.072265 1.293211-0.18178 2.488281-1.03883 2.488281-2.158203 0-0.704379-0.581478-1.108786-1.585938-2.123047-1.55403-1.569229-2.233079-3.077062-2.240234-4.978516-0.01122-2.974034 1.512437-5.502831 4.117188-6.832031 1.190884-0.607692 2.502038-0.90849 3.572265-0.904297zm3.091797 2.003906c0.340154-0.04572 0.773706 0.310731 1.384766 1.058594 2.414324 2.954687 2.165746 7.427097-0.554688 9.996094-1.159648 1.095065-1.430323 1.16222-2.234375 0.572265-0.46508-0.341242-0.554611-0.650401-0.550781-1.898437 0.0054-1.911998 0.636676-6.593994 1.128906-8.373047 0.238527-0.862075 0.486018-1.309716 0.826172-1.355469z" style="opacity:.2"/>
 <path d="m29.878906 11c-0.1467-0.0088-0.381467 0.083258-0.810547 0.267578-0.50933 0.2188-1.668118 0.396484-2.574218 0.396484-3.206641 0.06449-5.772559 1.148838-7.851563 3.1875-2.8219 2.785901-3.711028 6.288669-2.423828 9.542969 0.29713 0.75119 0.477551 1.514566 0.400391 1.697266-0.07713 0.18269-0.619765 0.690063-1.203125 1.126953-1.2675 0.94912-2.143982 2.48-2.363282 4.125-0.13173 0.98811-0.039778 1.459266 0.519532 2.634766 1.2012 2.5243 3.924625 3.605337 6.828125 2.710937 1.6812-0.51786 3.364237-2.357737 4.710937-5.148437 1.1631-2.4104 1.212638-2.468244 2.460938-2.902344 2.1045-0.73188 3.429946-1.541384 4.748046-2.896484 2.3368-2.4025 3.204688-5.514182 2.367188-8.488282-0.37633-1.3363-0.692244-1.796847-2.396484-3.498047-1.0795-1.0776-2.036907-2.169128-2.128907-2.423828-0.07755-0.21458-0.136503-0.323271-0.283203-0.332031zm-5.015625 2c1.070227 0.0042 1.899173 0.312525 2.125 0.925781 0.07404 0.201103-0.238711 1.149029-0.697265 2.105469-1.179219 2.459699-1.556962 3.813245-2.269532 8.152344-0.883744 5.381375-1.848581 7.704308-3.783203 9.101562-1.219602 0.880795-2.717578 0.956394-3.517578 0.179688-0.692124-0.671971-0.892262-1.514061-0.570312-2.396485 0.255025-0.699005 0.50253-0.810935 2.361328-1.072265 1.293211-0.18178 2.488281-1.03883 2.488281-2.158203 0-0.704379-0.581478-1.108786-1.585938-2.123047-1.55403-1.569229-2.233079-3.077062-2.240234-4.978516-0.01122-2.974034 1.512437-5.502831 4.117188-6.832031 1.190884-0.607692 2.502038-0.90849 3.572265-0.904297zm3.091797 2.003906c0.340154-0.04572 0.773706 0.310731 1.384766 1.058594 2.414324 2.954687 2.165746 7.427097-0.554688 9.996094-1.159648 1.095065-1.430323 1.16222-2.234375 0.572265-0.46508-0.341242-0.554611-0.650401-0.550781-1.898437 0.0054-1.911998 0.636676-6.593994 1.128906-8.373047 0.238527-0.862075 0.486018-1.309716 0.826172-1.355469z" style="fill:#ffffff"/>
</svg>

<svg xmlns="http://www.w3.org/2000/svg" width="48" height="48" version="1">
 <rect style="fill:#3c6eb4" width="40" height="40" x="-44" y="-44" rx="2" ry="2" transform="matrix(0,-1,-1,0,0,0)"/>
 <path fill="#fff" opacity=".1" d="m6 4c-1.108 0-2 0.892-2 2v1c0-1.108 0.892-2 2-2h36c1.108 0 2 0.892 2 2v-1c0-1.108-0.892-2-2-2h-36z"/>
 <path opacity=".2" d="m4 42v1c0 1.108 0.892 2 2 2h36c1.108 0 2-0.892 2-2v-1c0 1.108-0.892 2-2 2h-36c-1.108 0-2-0.892-2-2z"/>
 <path style="opacity:0.2" d="m 29.878906,12.00036 c -0.1467,-0.0088 -0.381467,0.08326 -0.810547,0.267578 -0.50933,0.2188 -1.668118,0.396484 -2.574218,0.396484 -3.206641,0.06449 -5.772559,1.148838 -7.851563,3.1875 -2.8219,2.785901 -3.711028,6.288669 -2.423828,9.542969 0.29713,0.75119 0.477551,1.514566 0.400391,1.697266 -0.07713,0.18269 -0.619765,0.690063 -1.203125,1.126953 -1.2675,0.94912 -2.143982,2.48 -2.363282,4.125 -0.13173,0.98811 -0.03978,1.459266 0.519532,2.634766 1.2012,2.5243 3.924625,3.605337 6.828125,2.710937 1.6812,-0.51786 3.364237,-2.357737 4.710937,-5.148437 1.1631,-2.4104 1.212638,-2.468244 2.460938,-2.902344 2.1045,-0.73188 3.429946,-1.541384 4.748046,-2.896484 2.3368,-2.4025 3.204688,-5.514182 2.367188,-8.488282 -0.37633,-1.3363 -0.692244,-1.796847 -2.396484,-3.498047 -1.0795,-1.0776 -2.036907,-2.169128 -2.128907,-2.423828 -0.07755,-0.21458 -0.136503,-0.323271 -0.283203,-0.332031 z m -5.015625,2 c 1.070227,0.0042 1.899173,0.312525 2.125,0.925781 0.07404,0.201103 -0.238711,1.149029 -0.697265,2.105469 -1.179219,2.459699 -1.556962,3.813245 -2.269532,8.152344 -0.883744,5.381375 -1.848581,7.704308 -3.783203,9.101562 -1.219602,0.880795 -2.717578,0.956394 -3.517578,0.179688 -0.692124,-0.671971 -0.892262,-1.514061 -0.570312,-2.396485 0.255025,-0.699005 0.50253,-0.810935 2.361328,-1.072265 C 19.80493,30.814674 21,29.957624 21,28.838251 c 0,-0.704379 -0.581478,-1.108786 -1.585938,-2.123047 -1.55403,-1.569229 -2.233079,-3.077062 -2.240234,-4.978516 -0.01122,-2.974034 1.512437,-5.502831 4.117188,-6.832031 1.190884,-0.607692 2.502038,-0.90849 3.572265,-0.904297 z m 3.091797,2.003906 c 0.340154,-0.04572 0.773706,0.310731 1.384766,1.058594 2.414324,2.954687 2.165746,7.427097 -0.554688,9.996094 -1.159648,1.095065 -1.430323,1.16222 -2.234375,0.572265 C 26.085701,27.289977 25.99617,26.980818 26,25.732782 c 0.0054,-1.911998 0.636676,-6.593994 1.128906,-8.373047 0.238527,-0.862075 0.486018,-1.309716 0.826172,-1.355469 z"/>
 <path style="fill:#ffffff" d="M 29.878906 11 C 29.732206 10.9912 29.497439 11.083258 29.068359 11.267578 C 28.559029 11.486378 27.400241 11.664062 26.494141 11.664062 C 23.2875 11.728552 20.721582 12.8129 18.642578 14.851562 C 15.820678 17.637463 14.93155 21.140231 16.21875 24.394531 C 16.51588 25.145721 16.696301 25.909097 16.619141 26.091797 C 16.542011 26.274487 15.999376 26.78186 15.416016 27.21875 C 14.148516 28.16787 13.272034 29.69875 13.052734 31.34375 C 12.921004 32.33186 13.012956 32.803016 13.572266 33.978516 C 14.773466 36.502816 17.496891 37.583853 20.400391 36.689453 C 22.081591 36.171593 23.764628 34.331716 25.111328 31.541016 C 26.274428 29.130616 26.323966 29.072772 27.572266 28.638672 C 29.676766 27.906792 31.002212 27.097288 32.320312 25.742188 C 34.657112 23.339688 35.525 20.228006 34.6875 17.253906 C 34.31117 15.917606 33.995256 15.457059 32.291016 13.755859 C 31.211516 12.678259 30.254109 11.586731 30.162109 11.332031 C 30.084559 11.117451 30.025606 11.00876 29.878906 11 z M 24.863281 13 C 25.933508 13.0042 26.762454 13.312525 26.988281 13.925781 C 27.062321 14.126884 26.74957 15.07481 26.291016 16.03125 C 25.111797 18.490949 24.734054 19.844495 24.021484 24.183594 C 23.13774 29.564969 22.172903 31.887902 20.238281 33.285156 C 19.018679 34.165951 17.520703 34.24155 16.720703 33.464844 C 16.028579 32.792873 15.828441 31.950783 16.150391 31.068359 C 16.405416 30.369354 16.652921 30.257424 18.511719 29.996094 C 19.80493 29.814314 21 28.957264 21 27.837891 C 21 27.133512 20.418522 26.729105 19.414062 25.714844 C 17.860032 24.145615 17.180983 22.637782 17.173828 20.736328 C 17.162608 17.762294 18.686265 15.233497 21.291016 13.904297 C 22.4819 13.296605 23.793054 12.995807 24.863281 13 z M 27.955078 15.003906 C 28.295232 14.958186 28.728784 15.314637 29.339844 16.0625 C 31.754168 19.017187 31.50559 23.489597 28.785156 26.058594 C 27.625508 27.153659 27.354833 27.220814 26.550781 26.630859 C 26.085701 26.289617 25.99617 25.980458 26 24.732422 C 26.0054 22.820424 26.636676 18.138428 27.128906 16.359375 C 27.367433 15.4973 27.614924 15.049659 27.955078 15.003906 z"/>
</svg>
